images/header/phone.svg

<svg width="17" height="16" viewBox="0 0 17 16" fill="none" xmlns="http://www.w3.org/2000/svg">
<path fill-rule="evenodd" clip-rule="evenodd" d="M7.52981 5.07037C7.9437 4.5118 8.09212 3.92312 7.62402 3.4035C6.57355 1.93151 5.86709 1.02124 5.42396 0.582879C4.58152 -0.250508 3.19568 -0.137779 2.46606 0.582167C2.07418 0.968857 1.94151 1.10165 1.53913 1.51094C-0.702188 3.75666 0.664684 8.50405 4.29833 12.1465C7.93115 15.788 12.6713 17.1576 14.9173 14.9071C15.2886 14.5487 15.603 14.2337 15.851 13.9712C16.566 13.2144 16.6745 11.8878 15.8462 11.026C15.4216 10.5841 14.5548 9.91082 13.0231 8.8136C12.554 8.39351 11.9977 8.48456 11.4878 8.8196C11.2425 8.98077 11.064 9.1438 10.7269 9.4817L10.1147 10.095C10.0341 10.1758 8.93937 9.62678 7.87667 8.56152C6.8134 7.49567 6.26552 6.3993 6.34577 6.31894L6.95831 5.70519C7.06526 5.59798 7.11639 5.54608 7.18196 5.47707C7.31857 5.33328 7.43168 5.2028 7.52981 5.07037ZM11.2439 11.2264L11.8561 10.6129C12.0416 10.427 12.1619 10.3126 12.2597 10.2338C13.6015 11.1988 14.3786 11.8055 14.696 12.1358C14.8866 12.3341 14.857 12.6959 14.6913 12.8713C14.462 13.1139 14.1642 13.4124 13.7986 13.7655C12.3463 15.2205 8.5199 14.115 5.4277 11.0153C2.33454 7.91469 1.2311 4.08227 2.67249 2.63803C3.07325 2.23042 3.20022 2.10333 3.58651 1.72216C3.73135 1.57924 4.12588 1.54715 4.30207 1.72145C4.64324 2.05895 5.27609 2.87043 6.20705 4.1691C6.15886 4.22902 6.09866 4.29673 6.02541 4.37383C5.97165 4.43042 5.92685 4.47589 5.82893 4.57405L5.21699 5.1872C4.17596 6.22964 5.06254 8.00381 6.74729 9.69263C8.43089 11.3803 10.2032 12.2691 11.2439 11.2264ZM9.76541 0.0556223C13.2191 0.474853 15.9577 3.21729 16.3763 6.67595L14.7982 6.93934C14.4935 4.15344 12.2843 1.94111 9.50239 1.63597L9.76541 0.0556223V0.0556223ZM9.23916 3.21767C11.3494 3.40668 13.03 5.08973 13.2187 7.20295L11.6356 7.46718C11.5684 6.02647 10.414 4.87037 8.9753 4.8031L9.23916 3.21767V3.21767Z" fill="#293449"/>
</svg>

<svg width="17" height="16" fill="none" xmlns="http://www.w3.org/2000/svg"><path fill-rule="evenodd" clip-rule="evenodd" d="M7.5298 5.0704c.4139-.5586.5623-1.1473.0942-1.6669-1.0504-1.472-1.757-2.3823-2.2-2.8206-.8425-.8334-2.2283-.7207-2.958-.0007a67.2527 67.2527 0 0 0-.9269.9287C-.7022 3.7567.6647 8.504 4.2983 12.1465c3.6328 3.6415 8.373 5.0111 10.619 2.7606.3713-.3584.6857-.6734.9337-.9359.715-.7568.8235-2.0834-.0048-2.9452-.4246-.4419-1.2914-1.1152-2.8231-2.2124-.4691-.42-1.0254-.329-1.5353.006-.2453.1612-.4238.3242-.7609.6621l-.6122.6133c-.0806.0808-1.1753-.4682-2.238-1.5335-1.0633-1.0658-1.6112-2.1622-1.531-2.2426l.6126-.6137c.107-.1072.158-.1591.2237-.2281.1366-.1438.2497-.2743.3478-.4067Zm3.7141 6.156.6122-.6135c.1855-.1859.3058-.3003.4036-.3791 1.3418.965 2.1189 1.5717 2.4363 1.902.1906.1983.161.5601-.0047.7355-.2293.2426-.5271.5411-.8927.8942-1.4523 1.455-5.2787.3495-8.3709-2.7502-3.0932-3.1006-4.1966-6.933-2.7552-8.3773.4007-.4076.5277-.5347.914-.9158.1448-.143.5394-.175.7156-.0008.3411.3375.974 1.149 1.905 2.4477a3.3792 3.3792 0 0 1-.1817.2047c-.0537.0566-.0986.102-.1965.2002l-.612.6132c-1.041 1.0424-.1544 2.8166 1.5304 4.5054 1.6836 1.6877 3.4559 2.5765 4.4966 1.5338ZM9.7654.0556c3.4537.4193 6.1923 3.1617 6.6109 6.6204l-1.5781.2633c-.3047-2.7859-2.5139-4.9982-5.2958-5.3033l.263-1.5804Zm-.5262 3.162c2.1102.189 3.7908 1.8721 3.9795 3.9854l-1.5831.2642c-.0672-1.4407-1.2216-2.5968-2.6603-2.6641l.2639-1.5854Z" fill="#293449"/></svg>
